X:1
T:Title
%%score { ( 1 3 5 ) | ( 2 4 ) }
L:1/8
Q:1/4=100
M:4/4
K:Bb
V:1 treble nm="Grand Piano"
V:3 treble 
V:5 treble 
V:2 bass 
V:4 bass 
V:1
 G>^F G>F G=FE[GB] | z4 G4[K:bass] | G>^F G>F G=FE[GB] | z4 [F_A]4[K:bass] | %4
w: Samuel~W.~Beazley * * * * * * *||||
 [F_A]>[=EG] [FA]>[EG] [FA][_EG][DF][FA] | G>^F G>F G=FEG | %6
w: ||
 [GB]>[^FA] [GB][Gd] [FA]>[F_A] [F=A][Fd] | G>^F G>F GBcd | e-[B,Ge]e-[B,Ge] edcB | %9
w: |||
 [Ge]>d [Ge]>d e-[Ge-] [Ge]2 | e-[B,Ge]e-[B,Ge] edcB | [_Ad]>c [Ad]>c d-[Ad-] [Ad]2 | %12
w: |||
 z .d3[K:bass][K:treble] z4 | [B,Gc]>[GB] [Gc]>B z2 EE | F>F B>d fecf |[M:5/8] [DB]>A[DB]>A[DB] | %16
w: ||||
[M:3/8] Bcd |[M:4/4] e-[B,Ge]e-[B,Ge] edcB | [Ge]>d [Ge]>d e-[Ge-] [Ge]2 | e-[B,Ge]e-[B,Ge] edcB | %20
w: ||||
 [_Ad]>c [Ad]>c d2- [B,Ad-][Ad] | z .d3[K:bass][K:treble] z4 | z4 G4 | [EF] .[EF]3 [Dc] .[DB]3 | %24
w: ||||
 [_AB][AB][Ac][Ad] [Ge]4[Q:1/4=97][Q:1/4=94][Q:1/4=91][Q:1/4=88][Q:1/4=84][Q:1/4=81][Q:1/4=78] |] %25
w: |
V:2
 [E,B,E]>[E,A,E] [E,B,E]>[E,A,E] [E,B,E][E,_A,E][E,G,][E,B,] | %1
 [E,B,]>[E,B,E] [E,B,E]>[E,A,E] [E,B,E]4 | %2
 [E,B,E]>[E,A,E] [E,B,E]>[E,A,E] [E,B,E][E,_A,E][E,G,][E,B,] | %3
 [B,,B,]>[B,,B,] [B,,B,]>[B,,B,] [B,,B,]4 | %4
 [B,,B,]>[B,,B,] [B,,B,]>[B,,B,] [B,,B,][B,,B,][B,,B,][B,,B,] | %5
 [E,B,E]>[E,A,E] [E,B,E]>[E,A,E] [E,B,E][E,_A,E][E,G,][E,B,E] | %6
 [D,B,]>[D,B,] [D,B,][D,B,] [D,D]>[D,D] [D,D][D,A,] | %7
 [G,B,D]>[D,A,D] [G,B,D]>[D,A,D][K:treble] .[G,B,D]2 A_A | .[E,B,]2 .[B,,B,]2 .[E,B,]2 [B,,B,]2 | %9
 E,->[E,B,G] B,>[B,G] B,B, [B,,B,]2 | .[E,B,]2 .[B,,B,]2 [E,B,]2 [B,,B,]2 | %11
 B,>[B,_A] B,>[B,A] B,B, [B,,B,]2 | B,[K:treble] [B,_A]2 [B,A][K:bass] B,B, z B, | %13
 z z/ B,/ B,>[B,G] [E,B,E]2 B,B, | [F,B,D]>[F,B,D] [F,B,D]>[F,B,F] [F,A,F][F,A,F][F,A,F][F,A,E] | %15
[M:5/8] [B,,B,]>[F,E][B,,F,]>[F,E][B,,F,] |[M:3/8] z[K:treble] A_A | %17
[M:4/4][K:bass] .[E,B,]2 .[B,,B,]2 [E,B,]2 [B,,B,]2 | B,>[B,G] B,>[B,G] B,B, [B,,B,]2 | %19
 .[E,B,]2 .[B,,B,]2 [E,B,]2 [B,,B,]2 | B,>[B,_A] B,>[B,A] [F,B,]2 z B, | %21
 B,[K:treble] [B,_A]2 [B,A][K:bass] B,B, z B, | .E,>B, .B,,>B, E,E, z B, | %23
 [_A,,_A,] .[A,,A,]3 [B,,A,] .[B,,A,]3 | [B,,B,][B,,B,][B,,B,][B,,B,] [E,B,]4 |] %25
V:3
 x8 | [Gc]>G G>^F z[K:bass] B,,C,D, | x8 | [D_Ac]>[DFA] [DFA]>[=EG] z[K:bass] D,F,D, | x8 | x8 | %6
 x8 | x8 | .G2 .G2 G2 G2 | z4 .G2 z2 | .G2 .G2 G2 G2 | z4 ._A2 z2 | %12
 .[_Ad]2[K:bass] z[K:treble] c [Ad][Ac][B,GB][FA] | z4 G4 | x8 |[M:5/8] x5 |[M:3/8] x3 | %17
[M:4/4] .G2 .G2 G2 G2 | z4 .G2 z2 | .G2 .G2 G2 G2 | z4 _A2 z2 | %21
 .[_Ad]2[K:bass] z[K:treble] c [Ad][Ac][B,GB][FA] | [B,Gc]>[GB] [B,Gc]>[GB] [B,E]2 [B,E]E | x8 | %24
 x8 |] %25
V:4
 x8 | x8 | x8 | x8 | x8 | x8 | x8 | x4[K:treble] x4 | x8 | B,2 B,,2 E,2 z2 | x8 | F,2 B,,2 F,2 z2 | %12
 F,2[K:treble] z2[K:bass] F,2 B,,2 | E,2 B,,2 z2 B,,2 | x8 |[M:5/8] x5 |[M:3/8] x[K:treble] x2 | %17
[M:4/4][K:bass] x8 | E,2 B,,2 E,2 z2 | x8 | F,2 B,,2 z2 B,,2 | F,2[K:treble] z2[K:bass] F,2 B,,2 | %22
 z E, z B,, z2 E,2 | x8 | x8 |] %25
V:5
 x8 | x5[K:bass] x3 | x8 | x5[K:bass] x3 | x8 | x8 | x8 | x8 | x8 | x8 | x8 | x8 | %12
 z2[K:bass] B,,2[K:treble] z4 | x8 | x8 |[M:5/8] x5 |[M:3/8] x3 |[M:4/4] x8 | x8 | x8 | x8 | %21
 z2[K:bass] B,,2[K:treble] z4 | x8 | x8 | x8 |] %25

